X:310
T:Miss Baird of Saughtonhall's Hornpipe
C:Nathaniel Gow
B:The Beauties of Niel Gow, Pt.2
Z:Nigel Gatherer
M:3/2
L:1/8
K:A
E2 A2 c2 A2 G2 A2|E2 A2 c2 A2 e4|f3 g a2 A2 G2 B2|F2 B2 AGFE A4:|
A2 C2 A2 C2 D2 C2|A2 C2 E2 C2 A4|f3 g a2 A2 G2 B2|F2 B2 AGFE A4|
A2 C2 A2 C2 D2 C2|A2 C2 E2 C2 A4|fgae dcBA G2 B2|F2 B2 AGFE A4|]
